OTTER/projects/Sem 2 Lab 3/res/luts/Screenshot_6.CUBE
#Created by: Adobe Photoshop Export Color Lookup Plugin
TITLE "Participation"
#LUT size
LUT_3D_SIZE 32
#data domain
DOMAIN_MIN 0.0 0.0 0.0
DOMAIN_MAX 1.0 1.0 1.0
#LUT data points
0.000000 0.000000 0.000000
0.086273 0.000000 0.000000
0.158508 0.000000 0.000000
0.212982 0.000000 0.000000
0.257660 0.000000 0.000000
0.298706 0.000000 0.000000
0.337036 0.000000 0.000000
0.373260 0.000000 0.000000
0.407776 0.000000 0.000000
0.440857 0.000000 0.000000
0.472717 0.000000 0.000000
0.503510 0.000000 0.000000
0.533386 0.000000 0.000000
0.562378 0.000000 0.000000
0.590698 0.000000 0.000000
0.618286 0.000000 0.000000
0.645325 0.000000 0.000000
0.671783 0.000000 0.000000
0.697693 0.000000 0.000000
0.723114 0.000000 0.000000
0.748108 0.000000 0.000000
0.772675 0.000000 0.000000
0.796814 0.000000 0.000000
0.820648 0.000000 0.000000
0.844116 0.000000 0.000000
0.867249 0.000000 0.000000
0.890045 0.000000 0.000000
0.912567 0.000000 0.000000
0.934814 0.000000 0.000000
0.956818 0.000000 0.000000
0.978516 0.000000 0.000000
1.000000 0.000000 0.000000
0.000000 0.027954 0.000000
0.086273 0.027954 0.000000
0.158508 0.027954 0.000000
0.212982 0.027954 0.000000
0.257660 0.027954 0.000000
0.298706 0.027954 0.000000
0.337036 0.027954 0.000000
0.373260 0.027954 0.000000
0.407776 0.027954 0.000000
0.440857 0.027954 0.000000
0.472717 0.027954 0.000000
0.503510 0.027954 0.000000
0.533386 0.027954 0.000000
0.562378 0.027954 0.000000
0.590698 0.027954 0.000000
0.618286 0.027954 0.000000
0.645325 0.027954 0.000000
0.671783 0.027954 0.000000
0.697693 0.027954 0.000000
0.723114 0.027954 0.000000
0.748108 0.027954 0.000000
0.772675 0.027954 0.000000
0.796814 0.027954 0.000000
0.820648 0.027954 0.000000
0.844116 0.027954 0.000000
0.867249 0.027954 0.000000
0.890045 0.027954 0.000000
0.912567 0.027954 0.000000
0.934814 0.027954 0.000000
0.956818 0.027954 0.000000
0.978516 0.027954 0.000000
1.000000 0.027954 0.000000
0.000000 0.057556 0.000000
0.086273 0.057556 0.000000
0.158508 0.057556 0.000000
0.212982 0.057556 0.000000
0.257660 0.057556 0.000000
0.298706 0.057556 0.000000
0.337036 0.057556 0.000000
0.373260 0.057556 0.000000
0.407776 0.057556 0.000000
0.440857 0.057556 0.000000
0.472717 0.057556 0.000000
0.503510 0.057556 0.000000
0.533386 0.057556 0.000000
0.562378 0.057556 0.000000
0.590698 0.057556 0.000000
0.618286 0.057556 0.000000
0.645325 0.057556 0.000000
0.671783 0.057556 0.000000
0.697693 0.057556 0.000000
0.723114 0.057556 0.000000
0.748108 0.057556 0.000000
0.772675 0.057556 0.000000
0.796814 0.057556 0.000000
0.820648 0.057556 0.000000
0.844116 0.057556 0.000000
0.867249 0.057556 0.000000
0.890045 0.057556 0.000000
0.912567 0.057556 0.000000
0.934814 0.057556 0.000000
0.956818 0.057556 0.000000
0.978516 0.057556 0.000000
1.000000 0.057556 0.000000
0.000000 0.087799 0.000000
0.086273 0.087799 0.000000
0.158508 0.087799 0.000000
0.212982 0.087799 0.000000
0.257660 0.087799 0.000000
0.298706 0.087799 0.000000
0.337036 0.087799 0.000000
0.373260 0.087799 0.000000
0.407776 0.087799 0.000000
0.440857 0.087799 0.000000
0.472717 0.087799 0.000000
0.503510 0.087799 0.000000
0.533386 0.087799 0.000000
0.562378 0.087799 0.000000
0.590698 0.087799 0.000000
0.618286 0.087799 0.000000
0.645325 0.087799 0.000000
0.671783 0.087799 0.000000
0.697693 0.087799 0.000000
0.723114 0.087799 0.000000
0.748108 0.087799 0.000000
0.772675 0.087799 0.000000
0.796814 0.087799 0.000000
0.820648 0.087799 0.000000
0.844116 0.087799 0.000000
0.867249 0.087799 0.000000
0.890045 0.087799 0.000000
0.912567 0.087799 0.000000
0.934814 0.087799 0.000000
0.956818 0.087799 0.000000
0.978516 0.087799 0.000000
1.000000 0.087799 0.000000
0.000000 0.118469 0.000000
0.086273 0.118469 0.000000
0.158508 0.118469 0.000000
0.212982 0.118469 0.000000
0.257660 0.118469 0.000000
0.298706 0.118469 0.000000
0.337036 0.118469 0.000000
0.373260 0.118469 0.000000
0.407776 0.118469 0.000000
0.440857 0.118469 0.000000
0.472717 0.118469 0.000000
0.503510 0.118469 0.000000
0.533386 0.118469 0.000000
0.562378 0.118469 0.000000
0.590698 0.118469 0.000000
0.618286 0.118469 0.000000
0.645325 0.118469 0.000000
0.671783 0.118469 0.000000
0.697693 0.118469 0.000000
0.723114 0.118469 0.000000
0.748108 0.118469 0.000000
0.772675 0.118469 0.000000
0.796814 0.118469 0.000000
0.820648 0.118469 0.000000
0.844116 0.118469 0.000000
0.867249 0.118469 0.000000
0.890045 0.118469 0.000000
0.912567 0.118469 0.000000
0.934814 0.118469 0.000000
0.956818 0.118469 0.000000
0.978516 0.118469 0.000000
1.000000 0.118469 0.000000
0.000000 0.149475 0.000000
0.086273 0.149475 0.000000
0.158508 0.149475 0.000000
0.212982 0.149475 0.000000
0.257660 0.149475 0.000000
0.298706 0.149475 0.000000
0.337036 0.149475 0.000000
0.373260 0.149475 0.000000
0.407776 0.149475 0.000000
0.440857 0.149475 0.000000
0.472717 0.149475 0.000000
0.503510 0.149475 0.000000
0.533386 0.149475 0.000000
0.562378 0.149475 0.000000
0.590698 0.149475 0.000000
0.618286 0.149475 0.000000
0.645325 0.149475 0.000000
0.671783 0.149475 0.000000
0.697693 0.149475 0.000000
0.723114 0.149475 0.000000
0.748108 0.149475 0.000000
0.772675 0.149475 0.000000
0.796814 0.149475 0.000000
0.820648 0.149475 0.000000
0.844116 0.149475 0.000000
0.867249 0.149475 0.000000
0.890045 0.149475 0.000000
0.912567 0.149475 0.000000
0.934814 0.149475 0.000000
0.956818 0.149475 0.000000
0.978516 0.149475 0.000000
1.000000 0.149475 0.000000
0.000000 0.180725 0.000000
0.086273 0.180725 0.000000
0.158508 0.180725 0.000000
0.212982 0.180725 0.000000
0.257660 0.180725 0.000000
0.298706 0.180725 0.000000
0.337036 0.180725 0.000000
0.373260 0.180725 0.000000
0.407776 0.180725 0.000000
0.440857 0.180725 0.000000
0.472717 0.180725 0.000000
0.503510 0.180725 0.000000
0.533386 0.180725 0.000000
0.562378 0.180725 0.000000
0.590698 0.180725 0.000000
0.618286 0.180725 0.000000
0.645325 0.180725 0.000000
0.671783 0.180725 0.000000
0.697693 0.180725 0.000000
0.723114 0.180725 0.000000
0.748108 0.180725 0.000000
0.772675 0.180725 0.000000
0.796814 0.180725 0.000000
0.820648 0.180725 0.000000
0.844116 0.180725 0.000000
0.867249 0.180725 0.000000
0.890045 0.180725 0.000000
0.912567 0.180725 0.000000
0.934814 0.180725 0.000000
0.956818 0.180725 0.000000
0.978516 0.180725 0.000000
1.000000 0.180725 0.000000
0.000000 0.212219 0.000000
0.086273 0.212219 0.000000
0.158508 0.212219 0.000000
0.212982 0.212219 0.000000
0.257660 0.212219 0.000000
0.298706 0.212219 0.000000
0.337036 0.212219 0.000000
0.373260 0.212219 0.000000
0.407776 0.212219 0.000000
0.440857 0.212219 0.000000
0.472717 0.212219 0.000000
0.503510 0.212219 0.000000
0.533386 0.212219 0.000000
0.562378 0.212219 0.000000
0.590698 0.212219 0.000000
0.618286 0.212219 0.000000
0.645325 0.212219 0.000000
0.671783 0.212219 0.000000
0.697693 0.212219 0.000000
0.723114 0.212219 0.000000
0.748108 0.212219 0.000000
0.772675 0.212219 0.000000
0.796814 0.212219 0.000000
0.820648 0.212219 0.000000
0.844116 0.212219 0.000000
0.867249 0.212219 0.000000
0.890045 0.212219 0.000000
0.912567 0.212219 0.000000
0.934814 0.212219 0.000000
0.956818 0.212219 0.000000
0.978516 0.212219 0.000000
1.000000 0.212219 0.000000
0.000000 0.243896 0.000000
0.086273 0.243896 0.000000
0.158508 0.243896 0.000000
0.212982 0.243896 0.000000
0.257660 0.243896 0.000000
0.298706 0.243896 0.000000
0.337036 0.243896 0.000000
0.373260 0.243896 0.000000
0.407776 0.243896 0.000000
0.440857 0.243896 0.000000
0.472717 0.243896 0.000000
0.503510 0.243896 0.000000
0.533386 0.243896 0.000000
0.562378 0.243896 0.000000
0.590698 0.243896 0.000000
0.618286 0.243896 0.000000
0.645325 0.243896 0.000000
0.671783 0.243896 0.000000
0.697693 0.243896 0.000000
0.723114 0.243896 0.000000
0.748108 0.243896 0.000000
0.772675 0.243896 0.000000
0.796814 0.243896 0.000000
0.820648 0.243896 0.000000
0.844116 0.243896 0.000000
0.867249 0.243896 0.000000
0.890045 0.243896 0.000000
0.912567 0.243896 0.000000
0.934814 0.243896 0.000000
0.956818 0.243896 0.000000
0.978516 0.243896 0.000000
1.000000 0.243896 0.000000
0.000000 0.275726 0.000000
0.086273 0.275726 0.000000
0.158508 0.275726 0.000000
0.212982 0.275726 0.000000
0.257660 0.275726 0.000000
0.298706 0.275726 0.000000
0.337036 0.275726 0.000000
0.373260 0.275726 0.000000
0.407776 0.275726 0.000000
0.440857 0.275726 0.000000
0.472717 0.275726 0.000000
0.503510 0.275726 0.000000
0.533386 0.275726 0.000000
0.562378 0.275726 0.000000
0.590698 0.275726 0.000000
0.618286 0.275726 0.000000
0.645325 0.275726 0.000000
0.671783 0.275726 0.000000
0.697693 0.275726 0.000000
0.723114 0.275726 0.000000
0.748108 0.275726 0.000000
0.772675 0.275726 0.000000
0.796814 0.275726 0.000000
0.820648 0.275726 0.000000
0.844116 0.275726 0.000000
0.867249 0.275726 0.000000
0.890045 0.275726 0.000000
0.912567 0.275726 0.000000
0.934814 0.275726 0.000000
0.956818 0.275726 0.000000
0.978516 0.275726 0.000000
1.000000 0.275726 0.000000
0.000000 0.307709 0.000000
0.086273 0.307709 0.000000
0.158508 0.307709 0.000000
0.212982 0.307709 0.000000
0.257660 0.307709 0.000000
0.298706 0.307709 0.000000
0.337036 0.307709 0.000000
0.373260 0.307709 0.000000
0.407776 0.307709 0.000000
0.440857 0.307709 0.000000
0.472717 0.307709 0.000000
0.503510 0.307709 0.000000
0.533386 0.307709 0.000000
0.562378 0.307709 0.000000
0.590698 0.307709 0.000000
0.618286 0.307709 0.000000
0.645325 0.307709 0.000000
0.671783 0.307709 0.000000
0.697693 0.307709 0.000000
0.723114 0.307709 0.000000
0.748108 0.307709 0.000000
0.772675 0.307709 0.000000
0.796814 0.307709 0.000000
0.820648 0.307709 0.000000
0.844116 0.307709 0.000000
0.867249 0.307709 0.000000
0.890045 0.307709 0.000000
0.912567 0.307709 0.000000
0.934814 0.307709 0.000000
0.956818 0.307709 0.000000
0.978516 0.307709 0.000000
1.000000 0.307709 0.000000
0.000000 0.339844 0.000000
0.086273 0.339844 0.000000
0.158508 0.339844 0.000000
0.212982 0.339844 0.000000
0.257660 0.339844 0.000000
0.298706 0.339844 0.000000
0.337036 0.339844 0.000000
0.373260 0.339844 0.000000
0.407776 0.339844 0.000000
0.440857 0.339844 0.000000
0.472717 0.339844 0.000000
0.503510 0.339844 0.000000
0.533386 0.339844 0.000000
0.562378 0.339844 0.000000
0.590698 0.339844 0.000000
0.618286 0.339844 0.000000
0.645325 0.339844 0.000000
0.671783 0.339844 0.000000
0.697693 0.339844 0.000000
0.723114 0.339844 0.000000
0.748108 0.339844 0.000000
0.772675 0.339844 0.000000
0.796814 0.339844 0.000000
0.820648 0.339844 0.000000
0.844116 0.339844 0.000000
0.867249 0.339844 0.000000
0.890045 0.339844 0.000000
0.912567 0.339844 0.000000
0.934814 0.339844 0.000000
0.956818 0.339844 0.000000
0.978516 0.339844 0.000000
1.000000 0.339844 0.000000
0.000000 0.372070 0.000000
0.086273 0.372070 0.000000
0.158508 0.372070 0.000000
0.212982 0.372070 0.000000
0.257660 0.372070 0.000000
0.298706 0.372070 0.000000
0.337036 0.372070 0.000000
0.373260 0.372070 0.000000
0.407776 0.372070 0.000000
0.440857 0.372070 0.000000
0.472717 0.372070 0.000000
0.503510 0.372070 0.000000
0.533386 0.372070 0.000000
0.562378 0.372070 0.000000
0.590698 0.372070 0.000000
0.618286 0.372070 0.000000
0.645325 0.372070 0.000000
0.671783 0.372070 0.000000
0.697693 0.372070 0.000000
0.723114 0.372070 0.000000
0.748108 0.372070 0.000000
0.772675 0.372070 0.000000
0.796814 0.372070 0.000000
0.820648 0.372070 0.000000
0.844116 0.372070 0.000000
0.867249 0.372070 0.000000
0.890045 0.372070 0.000000
0.912567 0.372070 0.000000
0.934814 0.372070 0.000000
0.956818 0.372070 0.000000
0.978516 0.372070 0.000000
1.000000 0.372070 0.000000
0.000000 0.404419 0.000000
0.086273 0.404419 0.000000
0.158508 0.404419 0.000000
0.212982 0.404419 0.000000
0.257660 0.404419 0.000000
0.298706 0.404419 0.000000
0.337036 0.404419 0.000000
0.373260 0.404419 0.000000
0.407776 0.404419 0.000000
0.440857 0.404419 0.000000
0.472717 0.404419 0.000000
0.503510 0.404419 0.000000
0.533386 0.404419 0.000000
0.562378 0.404419 0.000000
0.590698 0.404419 0.000000
0.618286 0.404419 0.000000
0.645325 0.404419 0.000000
0.671783 0.404419 0.000000
0.697693 0.404419 0.000000
0.723114 0.404419 0.000000
0.748108 0.404419 0.000000
0.772675 0.404419 0.000000
0.796814 0.404419 0.000000
0.820648 0.404419 0.000000
0.844116 0.404419 0.000000
0.867249 0.404419 0.000000
0.890045 0.404419 0.000000
0.912567 0.404419 0.000000
0.934814 0.404419 0.000000
0.956818 0.404419 0.000000
0.978516 0.404419 0.000000
1.000000 0.404419 0.000000
0.000000 0.436890 0.000000
0.086273 0.436890 0.000000
0.158508 0.436890 0.000000
0.212982 0.436890 0.000000
0.257660 0.436890 0.000000
0.298706 0.436890 0.000000
0.337036 0.436890 0.000000
0.373260 0.436890 0.000000
0.407776 0.436890 0.000000
0.440857 0.436890 0.000000
0.472717 0.436890 0.000000
0.503510 0.436890 0.000000
0.533386 0.436890 0.000000
0.562378 0.436890 0.000000
0.590698 0.436890 0.000000
0.618286 0.436890 0.000000
0.645325 0.436890 0.000000
0.671783 0.436890 0.000000
0.697693 0.436890 0.000000
0.723114 0.436890 0.000000
0.748108 0.436890 0.000000
0.772675 0.436890 0.000000
0.796814 0.436890 0.000000
0.820648 0.436890 0.000000
0.844116 0.436890 0.000000
0.867249 0.436890 0.000000
0.890045 0.436890 0.000000
0.912567 0.436890 0.000000
0.934814 0.436890 0.000000
0.956818 0.436890 0.000000
0.978516 0.436890 0.000000
1.000000 0.436890 0.000000
0.000000 0.469452 0.000000
0.086273 0.469452 0.000000
0.158508 0.469452 0.000000
0.212982 0.469452 0.000000
0.257660 0.469452 0.000000
0.298706 0.469452 0.000000
0.337036 0.469452 0.000000
0.373260 0.469452 0.000000
0.407776 0.469452 0.000000
0.440857 0.469452 0.000000
0.472717 0.469452 0.000000
0.503510 0.469452 0.000000
0.533386 0.469452 0.000000
0.562378 0.469452 0.000000
0.590698 0.469452 0.000000
0.618286 0.469452 0.000000
0.645325 0.469452 0.000000
0.671783 0.469452 0.000000
0.697693 0.469452 0.000000
0.723114 0.469452 0.000000
0.748108 0.469452 0.000000
0.772675 0.469452 0.000000
0.796814 0.469452 0.000000
0.820648 0.469452 0.000000
0.844116 0.469452 0.000000
0.867249 0.469452 0.000000
0.890045 0.469452 0.000000
0.912567 0.469452 0.000000
0.934814 0.469452 0.000000
0.956818 0.469452 0.000000
0.978516 0.469452 0.000000
1.000000 0.469452 0.000000
0.000000 0.502106 0.000000
0.086273 0.502106 0.000000
0.158508 0.502106 0.000000
0.212982 0.502106 0.000000
0.257660 0.502106 0.000000
0.298706 0.502106 0.000000
0.337036 0.502106 0.000000
0.373260 0.502106 0.000000
0.407776 0.502106 0.000000
0.440857 0.502106 0.000000
0.472717 0.502106 0.000000
0.503510 0.502106 0.000000
0.533386 0.502106 0.000000
0.562378 0.502106 0.000000
0.590698 0.502106 0.000000
0.618286 0.502106 0.000000
0.645325 0.502106 0.000000
0.671783 0.502106 0.000000
0.697693 0.502106 0.000000
0.723114 0.502106 0.000000
0.748108 0.502106 0.000000
0.772675 0.502106 0.000000
0.796814 0.502106 0.000000
0.820648 0.502106 0.000000
0.844116 0.502106 0.000000
0.867249 0.502106 0.000000
0.890045 0.502106 0.000000
0.912567 0.502106 0.000000
0.934814 0.502106 0.000000
0.956818 0.502106 0.000000
0.978516 0.502106 0.000000
1.000000 0.502106 0.000000
0.000000 0.534851 0.000000
0.086273 0.534851 0.000000
0.158508 0.534851 0.000000
0.212982 0.534851 0.000000
0.257660 0.534851 0.000000
0.298706 0.534851 0.000000
0.337036 0.534851 0.000000
0.373260 0.534851 0.000000
0.407776 0.534851 0.000000
0.440857 0.534851 0.000000
0.472717 0.534851 0.000000
0.503510 0.534851 0.000000
0.533386 0.534851 0.000000
0.562378 0.534851 0.000000
0.590698 0.534851 0.000000
0.618286 0.534851 0.000000
0.645325 0.534851 0.000000
0.671783 0.534851 0.000000
0.697693 0.534851 0.000000
0.723114 0.534851 0.000000
0.748108 0.534851 0.000000
0.772675 0.534851 0.000000
0.796814 0.534851 0.000000
0.820648 0.534851 0.000000
0.844116 0.534851 0.000000
0.867249 0.534851 0.000000
0.890045 0.534851 0.000000
0.912567 0.534851 0.000000
0.934814 0.534851 0.000000
0.956818 0.534851 0.000000
0.978516 0.534851 0.000000
1.000000 0.534851 0.000000
0.000000 0.567657 0.000000
0.086273 0.567657 0.000000
0.158508 0.567657 0.000000
0.212982 0.567657 0.000000
0.257660 0.567657 0.000000
0.298706 0.567657 0.000000
0.337036 0.567657 0.000000
0.373260 0.567657 0.000000
0.407776 0.567657 0.000000
0.440857 0.567657 0.000000
0.472717 0.567657 0.000000
0.503510 0.567657 0.000000
0.533386 0.567657 0.000000
0.562378 0.567657 0.000000
0.590698 0.567657 0.000000
0.618286 0.567657 0.000000
0.645325 0.567657 0.000000
0.671783 0.567657 0.000000
0.697693 0.567657 0.000000
0.723114 0.567657 0.000000
0.748108 0.567657 0.000000
0.772675 0.567657 0.000000
0.796814 0.567657 0.000000
0.820648 0.567657 0.000000
0.844116 0.567657 0.000000
0.867249 0.567657 0.000000
0.890045 0.567657 0.000000
0.912567 0.567657 0.000000
0.934814 0.567657 0.000000
0.956818 0.567657 0.000000
0.978516 0.567657 0.000000
1.000000 0.567657 0.000000
0.000000 0.600555 0.000000
0.086273 0.600555 0.000000
0.158508 0.600555 0.000000
0.212982 0.600555 0.000000
0.257660 0.600555 0.000000
0.298706 0.600555 0.000000
0.337036 0.600555 0.000000
0.373260 0.600555 0.000000
0.407776 0.600555 0.000000
0.440857 0.600555 0.000000
0.472717 0.600555 0.000000
0.503510 0.600555 0.000000
0.533386 0.600555 0.000000
0.562378 0.600555 0.000000
0.590698 0.600555 0.000000
0.618286 0.600555 0.000000
0.645325 0.600555 0.000000
0.671783 0.600555 0.000000
0.697693 0.600555 0.000000
0.723114 0.600555 0.000000
0.748108 0.600555 0.000000
0.772675 0.600555 0.000000
0.796814 0.600555 0.000000
0.820648 0.600555 0.000000
0.844116 0.600555 0.000000
0.867249 0.600555 0.000000
0.890045 0.600555 0.000000
0.912567 0.600555 0.000000
0.934814 0.600555 0.000000
0.956818 0.600555 0.000000
0.978516 0.600555 0.000000
1.000000 0.600555 0.000000
0.000000 0.633514 0.000000
0.086273 0.633514 0.000000
0.158508 0.633514 0.000000
0.212982 0.633514 0.000000
0.257660 0.633514 0.000000
0.298706 0.633514 0.000000
0.337036 0.633514 0.000000
0.373260 0.633514 0.000000
0.407776 0.633514 0.000000
0.440857 0.633514 0.000000
0.472717 0.633514 0.000000
0.503510 0.633514 0.000000
0.533386 0.633514 0.000000
0.562378 0.633514 0.000000
0.590698 0.633514 0.000000
0.618286 0.633514 0.000000
0.645325 0.633514 0.000000
0.671783 0.633514 0.000000
0.697693 0.633514 0.000000
0.723114 0.633514 0.000000
0.748108 0.633514 0.000000
0.772675 0.633514 0.000000
0.796814 0.633514 0.000000
0.820648 0.633514 0.000000
0.844116 0.633514 0.000000
0.867249 0.633514 0.000000
0.890045 0.633514 0.000000
0.912567 0.633514 0.000000
0.934814 0.633514 0.000000
0.956818 0.633514 0.000000
0.978516 0.633514 0.000000
1.000000 0.633514 0.000000
0.000000 0.666534 0.000000
0.086273 0.666534 0.000000
0.158508 0.666534 0.000000
0.212982 0.666534 0.000000
0.257660 0.666534 0.000000
0.298706 0.666534 0.000000
0.337036 0.666534 0.000000
0.373260 0.666534 0.000000
0.407776 0.666534 0.000000
0.440857 0.666534 0.000000
0.472717 0.666534 0.000000
0.503510 0.666534 0.000000
0.533386 0.666534 0.000000
0.562378 0.666534 0.000000
0.590698 0.666534 0.000000
0.618286 0.666534 0.000000
0.645325 0.666534 0.000000
0.671783 0.666534 0.000000
0.697693 0.666534 0.000000
0.723114 0.666534 0.000000
0.748108 0.666534 0.000000
0.772675 0.666534 0.000000
0.796814 0.666534 0.000000
0.820648 0.666534 0.000000
0.844116 0.666534 0.000000
0.867249 0.666534 0.000000
0.890045 0.666534 0.000000
0.912567 0.666534 0.000000
0.934814 0.666534 0.000000
0.956818 0.666534 0.000000
0.978516 0.666534 0.000000
1.000000 0.666534 0.000000
0.000000 0.699615 0.000000
0.086273 0.699615 0.000000
0.158508 0.699615 0.000000
0.212982 0.699615 0.000000
0.257660 0.699615 0.000000
0.298706 0.699615 0.000000
0.337036 0.699615 0.000000
0.373260 0.699615 0.000000
0.407776 0.699615 0.000000
0.440857 0.699615 0.000000
0.472717 0.699615 0.000000
0.503510 0.699615 0.000000
0.533386 0.699615 0.000000
0.562378 0.699615 0.000000
0.590698 0.699615 0.000000
0.618286 0.699615 0.000000
0.645325 0.699615 0.000000
0.671783 0.699615 0.000000
0.697693 0.699615 0.000000
0.723114 0.699615 0.000000
0.748108 0.699615 0.000000
0.772675 0.699615 0.000000
0.796814 0.699615 0.000000
0.820648 0.699615 0.000000
0.844116 0.699615 0.000000
0.867249 0.699615 0.000000
0.890045 0.699615 0.000000
0.912567 0.699615 0.000000
0.934814 0.699615 0.000000
0.956818 0.699615 0.000000
0.978516 0.699615 0.000000
1.000000 0.699615 0.000000
0.000000 0.732788 0.000000
0.086273 0.732788 0.000000
0.158508 0.732788 0.000000
0.212982 0.732788 0.000000
0.257660 0.732788 0.000000
0.298706 0.732788 0.000000
0.337036 0.732788 0.000000
0.373260 0.732788 0.000000
0.407776 0.732788 0.000000
0.440857 0.732788 0.000000
0.472717 0.732788 0.000000
0.503510 0.732788 0.000000
0.533386 0.732788 0.000000
0.562378 0.732788 0.000000
0.590698 0.732788 0.000000
0.618286 0.732788 0.000000
0.645325 0.732788 0.000000
0.671783 0.732788 0.000000
0.697693 0.732788 0.000000
0.723114 0.732788 0.000000
0.748108 0.732788 0.000000
0.772675 0.732788 0.000000
0.796814 0.732788 0.000000
0.820648 0.732788 0.000000
0.844116 0.732788 0.000000
0.867249 0.732788 0.000000
0.890045 0.732788 0.000000
0.912567 0.732788 0.000000
0.934814 0.732788 0.000000
0.956818 0.732788 0.000000
0.978516 0.732788 0.000000
1.000000 0.732788 0.000000
0.000000 0.765991 0.000000
0.086273 0.765991 0.000000
0.158508 0.765991 0.000000
0.212982 0.765991 0.000000
0.257660 0.765991 0.000000
0.298706 0.765991 0.000000
0.337036 0.765991 0.000000
0.373260 0.765991 0.000000
0.407776 0.765991 0.000000
0.440857 0.765991 0.000000
0.472717 0.765991 0.000000
0.503510 0.765991 0.000000
0.533386 0.765991 0.000000
0.562378 0.765991 0.000000
0.590698 0.765991 0.000000
0.618286 0.765991 0.000000
0.645325 0.765991 0.000000
0.671783 0.765991 0.000000
0.697693 0.765991 0.000000
0.723114 0.765991 0.000000
0.748108 0.765991 0.000000
0.772675 0.765991 0.000000
0.796814 0.765991 0.000000
0.820648 0.765991 0.000000
0.844116 0.765991 0.000000
0.867249 0.765991 0.000000
0.890045 0.765991 0.000000
0.912567 0.765991 0.000000
0.934814 0.765991 0.000000
0.956818 0.765991 0.000000
0.978516 0.765991 0.000000
1.000000 0.765991 0.000000
0.000000 0.799255 0.000000
0.086273 0.799255 0.000000
0.158508 0.799255 0.000000
0.212982 0.799255 0.000000
0.257660 0.799255 0.000000
0.298706 0.799255 0.000000
0.337036 0.799255 0.000000
0.373260 0.799255 0.000000
0.407776 0.799255 0.000000
0.440857 0.799255 0.000000
0.472717 0.799255 0.000000
0.503510 0.799255 0.000000
0.533386 0.799255 0.000000
0.562378 0.799255 0.000000
0.590698 0.799255 0.000000
0.618286 0.799255 0.000000
0.645325 0.799255 0.000000
0.671783 0.799255 0.000000
0.697693 0.799255 0.000000
0.723114 0.799255 0.000000
0.748108 0.799255 0.000000
0.772675 0.799255 0.000000
0.796814 0.799255 0.000000
0.820648 0.799255 0.000000
0.844116 0.799255 0.000000
0.867249 0.799255 0.000000
0.890045 0.799255 0.000000
0.912567 0.799255 0.000000
0.934814 0.799255 0.000000
0.956818 0.799255 0.000000
0.978516 0.799255 0.000000
1.000000 0.799255 0.000000
0.000000 0.832581 0.000000
0.086273 0.832581 0.000000
0.158508 0.832581 0.000000
0.212982 0.832581 0.000000
0.257660 0.832581 0.000000
0.298706 0.832581 0.000000
0.337036 0.832581 0.000000
0.373260 0.832581 0.000000
0.407776 0.832581 0.000000
0.440857 0.832581 0.000000
0.472717 0.832581 0.000000
0.503510 0.832581 0.000000
0.533386 0.832581 0.000000
0.562378 0.832581 0.000000
0.590698 0.832581 0.000000
0.618286 0.832581 0.000000
0.645325 0.832581 0.000000
0.671783 0.832581 0.000000
0.697693 0.832581 0.000000
0.723114 0.832581 0.000000
0.748108 0.832581 0.000000
0.772675 0.832581 0.000000
0.796814 0.832581 0.000000
0.820648 0.832581 0.000000
0.844116 0.832581 0.000000
0.867249 0.832581 0.000000
0.890045 0.832581 0.000000
0.912567 0.832581 0.000000
0.934814 0.832581 0.000000
0.956818 0.832581 0.000000
0.978516 0.832581 0.000000
1.000000 0.832581 0.000000
0.000000 0.865967 0.000000
0.086273 0.865967 0.000000
0.158508 0.865967 0.000000
0.212982 0.865967 0.000000
0.257660 0.865967 0.000000
0.298706 0.865967 0.000000
0.337036 0.865967 0.000000
0.373260 0.865967 0.000000
0.407776 0.865967 0.000000
0.440857 0.865967 0.000000
0.472717 0.865967 0.000000
0.503510 0.865967 0.000000
0.533386 0.865967 0.000000
0.562378 0.865967 0.000000
0.590698 0.865967 0.000000
0.618286 0.865967 0.000000
0.645325 0.865967 0.000000
0.671783 0.865967 0.000000
