OTTER/projects/Sem 2 Lab 3/res/luts/Screenshot_6.CUBE
#Created by: Adobe Photoshop Export Color Lookup Plugin
TITLE "Participation"
#LUT size
LUT_3D_SIZE 5
#data domain
#LUT data points
DOMAIN_MIN 0.000000 0.000000 0.000000
DOMAIN_MAX 0.903226 0.903226 0.903226
0.000000 0.000000 0.000000
0.373260 0.000000 0.000000
0.590698 0.000000 0.000000
0.772675 0.000000 0.000000
0.934814 0.000000 0.000000
0.000000 0.212219 0.000000
0.373260 0.212219 0.000000
0.590698 0.212219 0.000000
0.772675 0.212219 0.000000
0.934814 0.212219 0.000000
0.000000 0.436890 0.000000
0.373260 0.436890 0.000000
0.590698 0.436890 0.000000
0.772675 0.436890 0.000000
0.934814 0.436890 0.000000
0.000000 0.666534 0.000000
0.373260 0.666534 0.000000
0.590698 0.666534 0.000000
0.772675 0.666534 0.000000
0.934814 0.666534 0.000000
0.000000 0.899414 0.000000
0.373260 0.899414 0.000000
0.590698 0.899414 0.000000
0.772675 0.899414 0.000000
0.934814 0.899414 0.000000
0.000000 0.000000 0.104889
0.373260 0.000000 0.104889
0.590698 0.000000 0.104889
0.772675 0.000000 0.104889
0.934814 0.000000 0.104889
0.000000 0.212219 0.104889
0.373260 0.212219 0.104889
0.590698 0.212219 0.104889
0.772675 0.212219 0.104889
0.934814 0.212219 0.104889
0.000000 0.436890 0.104889
0.373260 0.436890 0.104889
0.590698 0.436890 0.104889
0.772675 0.436890 0.104889
0.934814 0.436890 0.104889
0.000000 0.666534 0.104889
0.373260 0.666534 0.104889
0.590698 0.666534 0.104889
0.772675 0.666534 0.104889
0.934814 0.666534 0.104889
0.000000 0.899414 0.104889
0.373260 0.899414 0.104889
0.590698 0.899414 0.104889
0.772675 0.899414 0.104889
0.934814 0.899414 0.104889
0.000000 0.000000 0.299835
0.373260 0.000000 0.299835
0.590698 0.000000 0.299835
0.772675 0.000000 0.299835
0.934814 0.000000 0.299835
0.000000 0.212219 0.299835
0.373260 0.212219 0.299835
0.590698 0.212219 0.299835
0.772675 0.212219 0.299835
0.934814 0.212219 0.299835
0.000000 0.436890 0.299835
0.373260 0.436890 0.299835
0.590698 0.436890 0.299835
0.772675 0.436890 0.299835
0.934814 0.436890 0.299835
0.000000 0.666534 0.299835
0.373260 0.666534 0.299835
0.590698 0.666534 0.299835
0.772675 0.666534 0.299835
0.934814 0.666534 0.299835
0.000000 0.899414 0.299835
0.373260 0.899414 0.299835
0.590698 0.899414 0.299835
0.772675 0.899414 0.299835
0.934814 0.899414 0.299835
0.000000 0.000000 0.554291
0.373260 0.000000 0.554291
0.590698 0.000000 0.554291
0.772675 0.000000 0.554291
0.934814 0.000000 0.554291
0.000000 0.212219 0.554291
0.373260 0.212219 0.554291
0.590698 0.212219 0.554291
0.772675 0.212219 0.554291
0.934814 0.212219 0.554291
0.000000 0.436890 0.554291
0.373260 0.436890 0.554291
0.590698 0.436890 0.554291
0.772675 0.436890 0.554291
0.934814 0.436890 0.554291
0.000000 0.666534 0.554291
0.373260 0.666534 0.554291
0.590698 0.666534 0.554291
0.772675 0.666534 0.554291
0.934814 0.666534 0.554291
0.000000 0.899414 0.554291
0.373260 0.899414 0.554291
0.590698 0.899414 0.554291
0.772675 0.899414 0.554291
0.934814 0.899414 0.554291
0.000000 0.000000 0.857086
0.373260 0.000000 0.857086
0.590698 0.000000 0.857086
0.772675 0.000000 0.857086
0.934814 0.000000 0.857086
0.000000 0.212219 0.857086
0.373260 0.212219 0.857086
0.590698 0.212219 0.857086
0.772675 0.212219 0.857086
0.934814 0.212219 0.857086
0.000000 0.436890 0.857086
0.373260 0.436890 0.857086
0.590698 0.436890 0.857086
0.772675 0.436890 0.857086
0.934814 0.436890 0.857086
0.000000 0.666534 0.857086
0.373260 0.666534 0.857086
0.590698 0.666534 0.857086
0.772675 0.666534 0.857086
0.934814 0.666534 0.857086
0.000000 0.899414 0.857086
0.373260 0.899414 0.857086
0.590698 0.899414 0.857086
0.772675 0.899414 0.857086
0.934814 0.899414 0.857086
