OTTER/projects/Sem 2 Lab 3/res/luts/Screenshot_6.CUBE
#Created by: Adobe Photoshop Export Color Lookup Plugin
TITLE "Participation"
#LUT size
LUT_3D_SIZE 8
#data domain
#LUT data points
DOMAIN_MIN 0.000000 0.000000 0.000000
DOMAIN_MAX 0.903226 0.903226 0.903226
0.000000 0.000000 0.000000
0.257660 0.000000 0.000000
0.407776 0.000000 0.000000
0.533386 0.000000 0.000000
0.645325 0.000000 0.000000
0.748108 0.000000 0.000000
0.844116 0.000000 0.000000
0.934814 0.000000 0.000000
0.000000 0.118469 0.000000
0.257660 0.118469 0.000000
0.407776 0.118469 0.000000
0.533386 0.118469 0.000000
0.645325 0.118469 0.000000
0.748108 0.118469 0.000000
0.844116 0.118469 0.000000
0.934814 0.118469 0.000000
0.000000 0.243896 0.000000
0.257660 0.243896 0.000000
0.407776 0.243896 0.000000
0.533386 0.243896 0.000000
0.645325 0.243896 0.000000
0.748108 0.243896 0.000000
0.844116 0.243896 0.000000
0.934814 0.243896 0.000000
0.000000 0.372070 0.000000
0.257660 0.372070 0.000000
0.407776 0.372070 0.000000
0.533386 0.372070 0.000000
0.645325 0.372070 0.000000
0.748108 0.372070 0.000000
0.844116 0.372070 0.000000
0.934814 0.372070 0.000000
0.000000 0.502106 0.000000
0.257660 0.502106 0.000000
0.407776 0.502106 0.000000
0.533386 0.502106 0.000000
0.645325 0.502106 0.000000
0.748108 0.502106 0.000000
0.844116 0.502106 0.000000
0.934814 0.502106 0.000000
0.000000 0.633514 0.000000
0.257660 0.633514 0.000000
0.407776 0.633514 0.000000
0.533386 0.633514 0.000000
0.645325 0.633514 0.000000
0.748108 0.633514 0.000000
0.844116 0.633514 0.000000
0.934814 0.633514 0.000000
0.000000 0.765991 0.000000
0.257660 0.765991 0.000000
0.407776 0.765991 0.000000
0.533386 0.765991 0.000000
0.645325 0.765991 0.000000
0.748108 0.765991 0.000000
0.844116 0.765991 0.000000
0.934814 0.765991 0.000000
0.000000 0.899414 0.000000
0.257660 0.899414 0.000000
0.407776 0.899414 0.000000
0.533386 0.899414 0.000000
0.645325 0.899414 0.000000
0.748108 0.899414 0.000000
0.844116 0.899414 0.000000
0.934814 0.899414 0.000000
0.000000 0.000000 0.044922
0.257660 0.000000 0.044922
0.407776 0.000000 0.044922
0.533386 0.000000 0.044922
0.645325 0.000000 0.044922
0.748108 0.000000 0.044922
0.844116 0.000000 0.044922
0.934814 0.000000 0.044922
0.000000 0.118469 0.044922
0.257660 0.118469 0.044922
0.407776 0.118469 0.044922
0.533386 0.118469 0.044922
0.645325 0.118469 0.044922
0.748108 0.118469 0.044922
0.844116 0.118469 0.044922
0.934814 0.118469 0.044922
0.000000 0.243896 0.044922
0.257660 0.243896 0.044922
0.407776 0.243896 0.044922
0.533386 0.243896 0.044922
0.645325 0.243896 0.044922
0.748108 0.243896 0.044922
0.844116 0.243896 0.044922
0.934814 0.243896 0.044922
0.000000 0.372070 0.044922
0.257660 0.372070 0.044922
0.407776 0.372070 0.044922
0.533386 0.372070 0.044922
0.645325 0.372070 0.044922
0.748108 0.372070 0.044922
0.844116 0.372070 0.044922
0.934814 0.372070 0.044922
0.000000 0.502106 0.044922
0.257660 0.502106 0.044922
0.407776 0.502106 0.044922
0.533386 0.502106 0.044922
0.645325 0.502106 0.044922
0.748108 0.502106 0.044922
0.844116 0.502106 0.044922
0.934814 0.502106 0.044922
0.000000 0.633514 0.044922
0.257660 0.633514 0.044922
0.407776 0.633514 0.044922
0.533386 0.633514 0.044922
0.645325 0.633514 0.044922
0.748108 0.633514 0.044922
0.844116 0.633514 0.044922
0.934814 0.633514 0.044922
0.000000 0.765991 0.044922
0.257660 0.765991 0.044922
0.407776 0.765991 0.044922
0.533386 0.765991 0.044922
0.645325 0.765991 0.044922
0.748108 0.765991 0.044922
0.844116 0.765991 0.044922
0.934814 0.765991 0.044922
0.000000 0.899414 0.044922
0.257660 0.899414 0.044922
0.407776 0.899414 0.044922
0.533386 0.899414 0.044922
0.645325 0.899414 0.044922
0.748108 0.899414 0.044922
0.844116 0.899414 0.044922
0.934814 0.899414 0.044922
0.000000 0.000000 0.128418
0.257660 0.000000 0.128418
0.407776 0.000000 0.128418
0.533386 0.000000 0.128418
0.645325 0.000000 0.128418
0.748108 0.000000 0.128418
0.844116 0.000000 0.128418
0.934814 0.000000 0.128418
0.000000 0.118469 0.128418
0.257660 0.118469 0.128418
0.407776 0.118469 0.128418
0.533386 0.118469 0.128418
0.645325 0.118469 0.128418
0.748108 0.118469 0.128418
0.844116 0.118469 0.128418
0.934814 0.118469 0.128418
0.000000 0.243896 0.128418
0.257660 0.243896 0.128418
0.407776 0.243896 0.128418
0.533386 0.243896 0.128418
0.645325 0.243896 0.128418
0.748108 0.243896 0.128418
0.844116 0.243896 0.128418
0.934814 0.243896 0.128418
0.000000 0.372070 0.128418
0.257660 0.372070 0.128418
0.407776 0.372070 0.128418
0.533386 0.372070 0.128418
0.645325 0.372070 0.128418
0.748108 0.372070 0.128418
0.844116 0.372070 0.128418
0.934814 0.372070 0.128418
0.000000 0.502106 0.128418
0.257660 0.502106 0.128418
0.407776 0.502106 0.128418
0.533386 0.502106 0.128418
0.645325 0.502106 0.128418
0.748108 0.502106 0.128418
0.844116 0.502106 0.128418
0.934814 0.502106 0.128418
0.000000 0.633514 0.128418
0.257660 0.633514 0.128418
0.407776 0.633514 0.128418
0.533386 0.633514 0.128418
0.645325 0.633514 0.128418
0.748108 0.633514 0.128418
0.844116 0.633514 0.128418
0.934814 0.633514 0.128418
0.000000 0.765991 0.128418
0.257660 0.765991 0.128418
0.407776 0.765991 0.128418
0.533386 0.765991 0.128418
0.645325 0.765991 0.128418
0.748108 0.765991 0.128418
0.844116 0.765991 0.128418
0.934814 0.765991 0.128418
0.000000 0.899414 0.128418
0.257660 0.899414 0.128418
0.407776 0.899414 0.128418
0.533386 0.899414 0.128418
0.645325 0.899414 0.128418
0.748108 0.899414 0.128418
0.844116 0.899414 0.128418
0.934814 0.899414 0.128418
0.000000 0.000000 0.237396
0.257660 0.000000 0.237396
0.407776 0.000000 0.237396
0.533386 0.000000 0.237396
0.645325 0.000000 0.237396
0.748108 0.000000 0.237396
0.844116 0.000000 0.237396
0.934814 0.000000 0.237396
0.000000 0.118469 0.237396
0.257660 0.118469 0.237396
0.407776 0.118469 0.237396
0.533386 0.118469 0.237396
0.645325 0.118469 0.237396
0.748108 0.118469 0.237396
0.844116 0.118469 0.237396
0.934814 0.118469 0.237396
0.000000 0.243896 0.237396
0.257660 0.243896 0.237396
0.407776 0.243896 0.237396
0.533386 0.243896 0.237396
0.645325 0.243896 0.237396
0.748108 0.243896 0.237396
0.844116 0.243896 0.237396
0.934814 0.243896 0.237396
0.000000 0.372070 0.237396
0.257660 0.372070 0.237396
0.407776 0.372070 0.237396
0.533386 0.372070 0.237396
0.645325 0.372070 0.237396
0.748108 0.372070 0.237396
0.844116 0.372070 0.237396
0.934814 0.372070 0.237396
0.000000 0.502106 0.237396
0.257660 0.502106 0.237396
0.407776 0.502106 0.237396
0.533386 0.502106 0.237396
0.645325 0.502106 0.237396
0.748108 0.502106 0.237396
0.844116 0.502106 0.237396
0.934814 0.502106 0.237396
0.000000 0.633514 0.237396
0.257660 0.633514 0.237396
0.407776 0.633514 0.237396
0.533386 0.633514 0.237396
0.645325 0.633514 0.237396
0.748108 0.633514 0.237396
0.844116 0.633514 0.237396
0.934814 0.633514 0.237396
0.000000 0.765991 0.237396
0.257660 0.765991 0.237396
0.407776 0.765991 0.237396
0.533386 0.765991 0.237396
0.645325 0.765991 0.237396
0.748108 0.765991 0.237396
0.844116 0.765991 0.237396
0.934814 0.765991 0.237396
0.000000 0.899414 0.237396
0.257660 0.899414 0.237396
0.407776 0.899414 0.237396
0.533386 0.899414 0.237396
0.645325 0.899414 0.237396
0.748108 0.899414 0.237396
0.844116 0.899414 0.237396
0.934814 0.899414 0.237396
0.000000 0.000000 0.367126
0.257660 0.000000 0.367126
0.407776 0.000000 0.367126
0.533386 0.000000 0.367126
0.645325 0.000000 0.367126
0.748108 0.000000 0.367126
0.844116 0.000000 0.367126
0.934814 0.000000 0.367126
0.000000 0.118469 0.367126
0.257660 0.118469 0.367126
0.407776 0.118469 0.367126
0.533386 0.118469 0.367126
0.645325 0.118469 0.367126
0.748108 0.118469 0.367126
0.844116 0.118469 0.367126
0.934814 0.118469 0.367126
0.000000 0.243896 0.367126
0.257660 0.243896 0.367126
0.407776 0.243896 0.367126
0.533386 0.243896 0.367126
0.645325 0.243896 0.367126
0.748108 0.243896 0.367126
0.844116 0.243896 0.367126
0.934814 0.243896 0.367126
0.000000 0.372070 0.367126
0.257660 0.372070 0.367126
0.407776 0.372070 0.367126
0.533386 0.372070 0.367126
0.645325 0.372070 0.367126
0.748108 0.372070 0.367126
0.844116 0.372070 0.367126
0.934814 0.372070 0.367126
0.000000 0.502106 0.367126
0.257660 0.502106 0.367126
0.407776 0.502106 0.367126
0.533386 0.502106 0.367126
0.645325 0.502106 0.367126
0.748108 0.502106 0.367126
0.844116 0.502106 0.367126
0.934814 0.502106 0.367126
0.000000 0.633514 0.367126
0.257660 0.633514 0.367126
0.407776 0.633514 0.367126
0.533386 0.633514 0.367126
0.645325 0.633514 0.367126
0.748108 0.633514 0.367126
0.844116 0.633514 0.367126
0.934814 0.633514 0.367126
0.000000 0.765991 0.367126
0.257660 0.765991 0.367126
0.407776 0.765991 0.367126
0.533386 0.765991 0.367126
0.645325 0.765991 0.367126
0.748108 0.765991 0.367126
0.844116 0.765991 0.367126
0.934814 0.765991 0.367126
0.000000 0.899414 0.367126
0.257660 0.899414 0.367126
0.407776 0.899414 0.367126
0.533386 0.899414 0.367126
0.645325 0.899414 0.367126
0.748108 0.899414 0.367126
0.844116 0.899414 0.367126
0.934814 0.899414 0.367126
0.000000 0.000000 0.514801
0.257660 0.000000 0.514801
0.407776 0.000000 0.514801
0.533386 0.000000 0.514801
0.645325 0.000000 0.514801
0.748108 0.000000 0.514801
0.844116 0.000000 0.514801
0.934814 0.000000 0.514801
0.000000 0.118469 0.514801
0.257660 0.118469 0.514801
0.407776 0.118469 0.514801
0.533386 0.118469 0.514801
0.645325 0.118469 0.514801
0.748108 0.118469 0.514801
0.844116 0.118469 0.514801
0.934814 0.118469 0.514801
0.000000 0.243896 0.514801
0.257660 0.243896 0.514801
0.407776 0.243896 0.514801
0.533386 0.243896 0.514801
0.645325 0.243896 0.514801
0.748108 0.243896 0.514801
0.844116 0.243896 0.514801
0.934814 0.243896 0.514801
0.000000 0.372070 0.514801
0.257660 0.372070 0.514801
0.407776 0.372070 0.514801
0.533386 0.372070 0.514801
0.645325 0.372070 0.514801
0.748108 0.372070 0.514801
0.844116 0.372070 0.514801
0.934814 0.372070 0.514801
0.000000 0.502106 0.514801
0.257660 0.502106 0.514801
0.407776 0.502106 0.514801
0.533386 0.502106 0.514801
0.645325 0.502106 0.514801
0.748108 0.502106 0.514801
0.844116 0.502106 0.514801
0.934814 0.502106 0.514801
0.000000 0.633514 0.514801
0.257660 0.633514 0.514801
0.407776 0.633514 0.514801
0.533386 0.633514 0.514801
0.645325 0.633514 0.514801
0.748108 0.633514 0.514801
0.844116 0.633514 0.514801
0.934814 0.633514 0.514801
0.000000 0.765991 0.514801
0.257660 0.765991 0.514801
0.407776 0.765991 0.514801
0.533386 0.765991 0.514801
0.645325 0.765991 0.514801
0.748108 0.765991 0.514801
0.844116 0.765991 0.514801
0.934814 0.765991 0.514801
0.000000 0.899414 0.514801
0.257660 0.899414 0.514801
0.407776 0.899414 0.514801
0.533386 0.899414 0.514801
0.645325 0.899414 0.514801
0.748108 0.899414 0.514801
0.844116 0.899414 0.514801
0.934814 0.899414 0.514801
0.000000 0.000000 0.678558
0.257660 0.000000 0.678558
0.407776 0.000000 0.678558
0.533386 0.000000 0.678558
0.645325 0.000000 0.678558
0.748108 0.000000 0.678558
0.844116 0.000000 0.678558
0.934814 0.000000 0.678558
0.000000 0.118469 0.678558
0.257660 0.118469 0.678558
0.407776 0.118469 0.678558
0.533386 0.118469 0.678558
0.645325 0.118469 0.678558
0.748108 0.118469 0.678558
0.844116 0.118469 0.678558
0.934814 0.118469 0.678558
0.000000 0.243896 0.678558
0.257660 0.243896 0.678558
0.407776 0.243896 0.678558
0.533386 0.243896 0.678558
0.645325 0.243896 0.678558
0.748108 0.243896 0.678558
0.844116 0.243896 0.678558
0.934814 0.243896 0.678558
0.000000 0.372070 0.678558
0.257660 0.372070 0.678558
0.407776 0.372070 0.678558
0.533386 0.372070 0.678558
0.645325 0.372070 0.678558
0.748108 0.372070 0.678558
0.844116 0.372070 0.678558
0.934814 0.372070 0.678558
0.000000 0.502106 0.678558
0.257660 0.502106 0.678558
0.407776 0.502106 0.678558
0.533386 0.502106 0.678558
0.645325 0.502106 0.678558
0.748108 0.502106 0.678558
0.844116 0.502106 0.678558
0.934814 0.502106 0.678558
0.000000 0.633514 0.678558
0.257660 0.633514 0.678558
0.407776 0.633514 0.678558
0.533386 0.633514 0.678558
0.645325 0.633514 0.678558
0.748108 0.633514 0.678558
0.844116 0.633514 0.678558
0.934814 0.633514 0.678558
0.000000 0.765991 0.678558
0.257660 0.765991 0.678558
0.407776 0.765991 0.678558
0.533386 0.765991 0.678558
0.645325 0.765991 0.678558
0.748108 0.765991 0.678558
0.844116 0.765991 0.678558
0.934814 0.765991 0.678558
0.000000 0.899414 0.678558
0.257660 0.899414 0.678558
0.407776 0.899414 0.678558
0.533386 0.899414 0.678558
0.645325 0.899414 0.678558
0.748108 0.899414 0.678558
0.844116 0.899414 0.678558
0.934814 0.899414 0.678558
0.000000 0.000000 0.857086
0.257660 0.000000 0.857086
0.407776 0.000000 0.857086
0.533386 0.000000 0.857086
0.645325 0.000000 0.857086
0.748108 0.000000 0.857086
0.844116 0.000000 0.857086
0.934814 0.000000 0.857086
0.000000 0.118469 0.857086
0.257660 0.118469 0.857086
0.407776 0.118469 0.857086
0.533386 0.118469 0.857086
0.645325 0.118469 0.857086
0.748108 0.118469 0.857086
0.844116 0.118469 0.857086
0.934814 0.118469 0.857086
0.000000 0.243896 0.857086
0.257660 0.243896 0.857086
0.407776 0.243896 0.857086
0.533386 0.243896 0.857086
0.645325 0.243896 0.857086
0.748108 0.243896 0.857086
0.844116 0.243896 0.857086
0.934814 0.243896 0.857086
0.000000 0.372070 0.857086
0.257660 0.372070 0.857086
0.407776 0.372070 0.857086
0.533386 0.372070 0.857086
0.645325 0.372070 0.857086
0.748108 0.372070 0.857086
0.844116 0.372070 0.857086
0.934814 0.372070 0.857086
0.000000 0.502106 0.857086
0.257660 0.502106 0.857086
0.407776 0.502106 0.857086
0.533386 0.502106 0.857086
0.645325 0.502106 0.857086
0.748108 0.502106 0.857086
0.844116 0.502106 0.857086
0.934814 0.502106 0.857086
0.000000 0.633514 0.857086
0.257660 0.633514 0.857086
0.407776 0.633514 0.857086
0.533386 0.633514 0.857086
0.645325 0.633514 0.857086
0.748108 0.633514 0.857086
0.844116 0.633514 0.857086
0.934814 0.633514 0.857086
0.000000 0.765991 0.857086
0.257660 0.765991 0.857086
0.407776 0.765991 0.857086
0.533386 0.765991 0.857086
0.645325 0.765991 0.857086
0.748108 0.765991 0.857086
0.844116 0.765991 0.857086
0.934814 0.765991 0.857086
0.000000 0.899414 0.857086
0.257660 0.899414 0.857086
0.407776 0.899414 0.857086
0.533386 0.899414 0.857086
0.645325 0.899414 0.857086
0.748108 0.899414 0.857086
0.844116 0.899414 0.857086
0.934814 0.899414 0.857086
