Midterm Submission/res/luts/Screenshot_6.3DL
#Created by: Adobe Photoshop Export Color Lookup Plugin
#Description: Participation
0 33 66 99 132 165 198 231 264 297 330 363 396 429 462 495 528 561 594 627 660 693 726 759 792 825 858 891 924 957 990 1023
0 0 0
0 0 22
0 0 64
0 0 119
0 0 184
0 0 258
0 0 340
0 0 430
0 0 526
0 0 629
0 0 738
0 0 852
0 0 972
0 0 1097
0 0 1228
0 0 1363
0 0 1503
0 0 1648
0 0 1797
0 0 1951
0 0 2108
0 0 2270
0 0 2436
0 0 2605
0 0 2779
0 0 2956
0 0 3137
0 0 3322
0 0 3510
0 0 3701
0 0 3897
0 0 4095
0 114 0
0 114 22
0 114 64
0 114 119
0 114 184
0 114 258
0 114 340
0 114 430
0 114 526
0 114 629
0 114 738
0 114 852
0 114 972
0 114 1097
0 114 1228
0 114 1363
0 114 1503
0 114 1648
0 114 1797
0 114 1951
0 114 2108
0 114 2270
0 114 2436
0 114 2605
0 114 2779
0 114 2956
0 114 3137
0 114 3322
0 114 3510
0 114 3701
0 114 3897
0 114 4095
0 236 0
0 236 22
0 236 64
0 236 119
0 236 184
0 236 258
0 236 340
0 236 430
0 236 526
0 236 629
0 236 738
0 236 852
0 236 972
0 236 1097
0 236 1228
0 236 1363
0 236 1503
0 236 1648
0 236 1797
0 236 1951
0 236 2108
0 236 2270
0 236 2436
0 236 2605
0 236 2779
0 236 2956
0 236 3137
0 236 3322
0 236 3510
0 236 3701
0 236 3897
0 236 4095
0 360 0
0 360 22
0 360 64
0 360 119
0 360 184
0 360 258
0 360 340
0 360 430
0 360 526
0 360 629
0 360 738
0 360 852
0 360 972
0 360 1097
0 360 1228
0 360 1363
0 360 1503
0 360 1648
0 360 1797
0 360 1951
0 360 2108
0 360 2270
0 360 2436
0 360 2605
0 360 2779
0 360 2956
0 360 3137
0 360 3322
0 360 3510
0 360 3701
0 360 3897
0 360 4095
0 485 0
0 485 22
0 485 64
0 485 119
0 485 184
0 485 258
0 485 340
0 485 430
0 485 526
0 485 629
0 485 738
0 485 852
0 485 972
0 485 1097
0 485 1228
0 485 1363
0 485 1503
0 485 1648
0 485 1797
0 485 1951
0 485 2108
0 485 2270
0 485 2436
0 485 2605
0 485 2779
0 485 2956
0 485 3137
0 485 3322
0 485 3510
0 485 3701
0 485 3897
0 485 4095
0 612 0
0 612 22
0 612 64
0 612 119
0 612 184
0 612 258
0 612 340
0 612 430
0 612 526
0 612 629
0 612 738
0 612 852
0 612 972
0 612 1097
0 612 1228
0 612 1363
0 612 1503
0 612 1648
0 612 1797
0 612 1951
0 612 2108
0 612 2270
0 612 2436
0 612 2605
0 612 2779
0 612 2956
0 612 3137
0 612 3322
0 612 3510
0 612 3701
0 612 3897
0 612 4095
0 740 0
0 740 22
0 740 64
0 740 119
0 740 184
0 740 258
0 740 340
0 740 430
0 740 526
0 740 629
0 740 738
0 740 852
0 740 972
0 740 1097
0 740 1228
0 740 1363
0 740 1503
0 740 1648
0 740 1797
0 740 1951
0 740 2108
0 740 2270
0 740 2436
0 740 2605
0 740 2779
0 740 2956
0 740 3137
0 740 3322
0 740 3510
0 740 3701
0 740 3897
0 740 4095
0 869 0
0 869 22
0 869 64
0 869 119
0 869 184
0 869 258
0 869 340
0 869 430
0 869 526
0 869 629
0 869 738
0 869 852
0 869 972
0 869 1097
0 869 1228
0 869 1363
0 869 1503
0 869 1648
0 869 1797
0 869 1951
0 869 2108
0 869 2270
0 869 2436
0 869 2605
0 869 2779
0 869 2956
0 869 3137
0 869 3322
0 869 3510
0 869 3701
0 869 3897
0 869 4095
0 999 0
0 999 22
0 999 64
0 999 119
0 999 184
0 999 258
0 999 340
0 999 430
0 999 526
0 999 629
0 999 738
0 999 852
0 999 972
0 999 1097
0 999 1228
0 999 1363
0 999 1503
0 999 1648
0 999 1797
0 999 1951
0 999 2108
0 999 2270
0 999 2436
0 999 2605
0 999 2779
0 999 2956
0 999 3137
0 999 3322
0 999 3510
0 999 3701
0 999 3897
0 999 4095
0 1129 0
0 1129 22
0 1129 64
0 1129 119
0 1129 184
0 1129 258
0 1129 340
0 1129 430
0 1129 526
0 1129 629
0 1129 738
0 1129 852
0 1129 972
0 1129 1097
0 1129 1228
0 1129 1363
0 1129 1503
0 1129 1648
0 1129 1797
0 1129 1951
0 1129 2108
0 1129 2270
0 1129 2436
0 1129 2605
0 1129 2779
0 1129 2956
0 1129 3137
0 1129 3322
0 1129 3510
0 1129 3701
0 1129 3897
0 1129 4095
0 1260 0
0 1260 22
0 1260 64
0 1260 119
0 1260 184
0 1260 258
0 1260 340
0 1260 430
0 1260 526
0 1260 629
0 1260 738
0 1260 852
0 1260 972
0 1260 1097
0 1260 1228
0 1260 1363
0 1260 1503
0 1260 1648
0 1260 1797
0 1260 1951
0 1260 2108
0 1260 2270
0 1260 2436
0 1260 2605
0 1260 2779
0 1260 2956
0 1260 3137
0 1260 3322
0 1260 3510
0 1260 3701
0 1260 3897
0 1260 4095
0 1392 0
0 1392 22
0 1392 64
0 1392 119
0 1392 184
0 1392 258
0 1392 340
0 1392 430
0 1392 526
0 1392 629
0 1392 738
0 1392 852
0 1392 972
0 1392 1097
0 1392 1228
0 1392 1363
0 1392 1503
0 1392 1648
0 1392 1797
0 1392 1951
0 1392 2108
0 1392 2270
0 1392 2436
0 1392 2605
0 1392 2779
0 1392 2956
0 1392 3137
0 1392 3322
0 1392 3510
0 1392 3701
0 1392 3897
0 1392 4095
0 1524 0
0 1524 22
0 1524 64
0 1524 119
0 1524 184
0 1524 258
0 1524 340
0 1524 430
0 1524 526
0 1524 629
0 1524 738
0 1524 852
0 1524 972
0 1524 1097
0 1524 1228
0 1524 1363
0 1524 1503
0 1524 1648
0 1524 1797
0 1524 1951
0 1524 2108
0 1524 2270
0 1524 2436
0 1524 2605
0 1524 2779
0 1524 2956
0 1524 3137
0 1524 3322
0 1524 3510
0 1524 3701
0 1524 3897
0 1524 4095
0 1656 0
0 1656 22
0 1656 64
0 1656 119
0 1656 184
0 1656 258
0 1656 340
0 1656 430
0 1656 526
0 1656 629
0 1656 738
0 1656 852
0 1656 972
0 1656 1097
0 1656 1228
0 1656 1363
0 1656 1503
0 1656 1648
0 1656 1797
0 1656 1951
0 1656 2108
0 1656 2270
0 1656 2436
0 1656 2605
0 1656 2779
0 1656 2956
0 1656 3137
0 1656 3322
0 1656 3510
0 1656 3701
0 1656 3897
0 1656 4095
0 1789 0
0 1789 22
0 1789 64
0 1789 119
0 1789 184
0 1789 258
0 1789 340
0 1789 430
0 1789 526
0 1789 629
0 1789 738
0 1789 852
0 1789 972
0 1789 1097
0 1789 1228
0 1789 1363
0 1789 1503
0 1789 1648
0 1789 1797
0 1789 1951
0 1789 2108
0 1789 2270
0 1789 2436
0 1789 2605
0 1789 2779
0 1789 2956
0 1789 3137
0 1789 3322
0 1789 3510
0 1789 3701
0 1789 3897
0 1789 4095
0 1922 0
0 1922 22
0 1922 64
0 1922 119
0 1922 184
0 1922 258
0 1922 340
0 1922 430
0 1922 526
0 1922 629
0 1922 738
0 1922 852
0 1922 972
0 1922 1097
0 1922 1228
0 1922 1363
0 1922 1503
0 1922 1648
0 1922 1797
0 1922 1951
0 1922 2108
0 1922 2270
0 1922 2436
0 1922 2605
0 1922 2779
0 1922 2956
0 1922 3137
0 1922 3322
0 1922 3510
0 1922 3701
0 1922 3897
0 1922 4095
0 2056 0
0 2056 22
0 2056 64
0 2056 119
0 2056 184
0 2056 258
0 2056 340
0 2056 430
0 2056 526
0 2056 629
0 2056 738
0 2056 852
0 2056 972
0 2056 1097
0 2056 1228
0 2056 1363
0 2056 1503
0 2056 1648
0 2056 1797
0 2056 1951
0 2056 2108
0 2056 2270
0 2056 2436
0 2056 2605
0 2056 2779
0 2056 2956
0 2056 3137
0 2056 3322
0 2056 3510
0 2056 3701
0 2056 3897
0 2056 4095
0 2190 0
0 2190 22
0 2190 64
0 2190 119
0 2190 184
0 2190 258
0 2190 340
0 2190 430
0 2190 526
0 2190 629
0 2190 738
0 2190 852
0 2190 972
0 2190 1097
0 2190 1228
0 2190 1363
0 2190 1503
0 2190 1648
0 2190 1797
0 2190 1951
0 2190 2108
0 2190 2270
0 2190 2436
0 2190 2605
0 2190 2779
0 2190 2956
0 2190 3137
0 2190 3322
0 2190 3510
0 2190 3701
0 2190 3897
0 2190 4095
0 2325 0
0 2325 22
0 2325 64
0 2325 119
0 2325 184
0 2325 258
0 2325 340
0 2325 430
0 2325 526
0 2325 629
0 2325 738
0 2325 852
0 2325 972
0 2325 1097
0 2325 1228
0 2325 1363
0 2325 1503
0 2325 1648
0 2325 1797
0 2325 1951
0 2325 2108
0 2325 2270
0 2325 2436
0 2325 2605
0 2325 2779
0 2325 2956
0 2325 3137
0 2325 3322
0 2325 3510
0 2325 3701
0 2325 3897
0 2325 4095
0 2459 0
0 2459 22
0 2459 64
0 2459 119
0 2459 184
0 2459 258
0 2459 340
0 2459 430
0 2459 526
0 2459 629
0 2459 738
0 2459 852
0 2459 972
0 2459 1097
0 2459 1228
0 2459 1363
0 2459 1503
0 2459 1648
0 2459 1797
0 2459 1951
0 2459 2108
0 2459 2270
0 2459 2436
0 2459 2605
0 2459 2779
0 2459 2956
0 2459 3137
0 2459 3322
0 2459 3510
0 2459 3701
0 2459 3897
0 2459 4095
0 2594 0
0 2594 22
0 2594 64
0 2594 119
0 2594 184
0 2594 258
0 2594 340
0 2594 430
0 2594 526
0 2594 629
0 2594 738
0 2594 852
0 2594 972
0 2594 1097
0 2594 1228
0 2594 1363
0 2594 1503
0 2594 1648
0 2594 1797
0 2594 1951
0 2594 2108
0 2594 2270
0 2594 2436
0 2594 2605
0 2594 2779
0 2594 2956
0 2594 3137
0 2594 3322
0 2594 3510
0 2594 3701
0 2594 3897
0 2594 4095
0 2729 0
0 2729 22
0 2729 64
0 2729 119
0 2729 184
0 2729 258
0 2729 340
0 2729 430
0 2729 526
0 2729 629
0 2729 738
0 2729 852
0 2729 972
0 2729 1097
0 2729 1228
0 2729 1363
0 2729 1503
0 2729 1648
0 2729 1797
0 2729 1951
0 2729 2108
0 2729 2270
0 2729 2436
0 2729 2605
0 2729 2779
0 2729 2956
0 2729 3137
0 2729 3322
0 2729 3510
0 2729 3701
0 2729 3897
0 2729 4095
0 2865 0
0 2865 22
0 2865 64
0 2865 119
0 2865 184
0 2865 258
0 2865 340
0 2865 430
0 2865 526
0 2865 629
0 2865 738
0 2865 852
0 2865 972
0 2865 1097
0 2865 1228
0 2865 1363
0 2865 1503
0 2865 1648
0 2865 1797
0 2865 1951
0 2865 2108
0 2865 2270
0 2865 2436
0 2865 2605
0 2865 2779
0 2865 2956
0 2865 3137
0 2865 3322
0 2865 3510
0 2865 3701
0 2865 3897
0 2865 4095
0 3001 0
0 3001 22
0 3001 64
0 3001 119
0 3001 184
0 3001 258
0 3001 340
0 3001 430
0 3001 526
0 3001 629
0 3001 738
0 3001 852
0 3001 972
0 3001 1097
0 3001 1228
0 3001 1363
0 3001 1503
0 3001 1648
0 3001 1797
0 3001 1951
0 3001 2108
0 3001 2270
0 3001 2436
0 3001 2605
0 3001 2779
0 3001 2956
0 3001 3137
0 3001 3322
0 3001 3510
0 3001 3701
0 3001 3897
0 3001 4095
0 3137 0
0 3137 22
0 3137 64
0 3137 119
0 3137 184
0 3137 258
0 3137 340
0 3137 430
0 3137 526
0 3137 629
0 3137 738
0 3137 852
0 3137 972
0 3137 1097
0 3137 1228
0 3137 1363
0 3137 1503
0 3137 1648
0 3137 1797
0 3137 1951
0 3137 2108
0 3137 2270
0 3137 2436
0 3137 2605
0 3137 2779
0 3137 2956
0 3137 3137
0 3137 3322
0 3137 3510
0 3137 3701
0 3137 3897
0 3137 4095
0 3273 0
0 3273 22
0 3273 64
0 3273 119
0 3273 184
0 3273 258
0 3273 340
0 3273 430
0 3273 526
0 3273 629
0 3273 738
0 3273 852
0 3273 972
0 3273 1097
0 3273 1228
0 3273 1363
0 3273 1503
0 3273 1648
0 3273 1797
0 3273 1951
0 3273 2108
0 3273 2270
0 3273 2436
0 3273 2605
0 3273 2779
0 3273 2956
0 3273 3137
0 3273 3322
0 3273 3510
0 3273 3701
0 3273 3897
0 3273 4095
0 3409 0
0 3409 22
0 3409 64
0 3409 119
0 3409 184
0 3409 258
0 3409 340
0 3409 430
0 3409 526
0 3409 629
0 3409 738
0 3409 852
0 3409 972
0 3409 1097
0 3409 1228
0 3409 1363
0 3409 1503
0 3409 1648
0 3409 1797
0 3409 1951
0 3409 2108
0 3409 2270
0 3409 2436
0 3409 2605
0 3409 2779
0 3409 2956
0 3409 3137
0 3409 3322
0 3409 3510
0 3409 3701
0 3409 3897
0 3409 4095
0 3546 0
0 3546 22
0 3546 64
0 3546 119
0 3546 184
0 3546 258
0 3546 340
0 3546 430
0 3546 526
0 3546 629
0 3546 738
0 3546 852
0 3546 972
0 3546 1097
0 3546 1228
0 3546 1363
0 3546 1503
0 3546 1648
0 3546 1797
0 3546 1951
0 3546 2108
0 3546 2270
0 3546 2436
0 3546 2605
0 3546 2779
0 3546 2956
0 3546 3137
0 3546 3322
0 3546 3510
0 3546 3701
0 3546 3897
0 3546 4095
0 3683 0
0 3683 22
0 3683 64
0 3683 119
